symbols/web/person_add/materialsymbolsoutlined/person_add_wght600_48px.svg

<svg xmlns="http://www.w3.org/2000/svg" height="48" width="48"><path d="M36.9 27.1v-6.35h-6.35v-3.3h6.35V11.1h3.35v6.35h6.3v3.3h-6.3v6.35Zm-18.75-3.5q-3.65 0-5.95-2.3-2.3-2.3-2.3-5.9 0-3.65 2.3-5.95 2.3-2.3 5.95-2.3 3.6 0 5.9 2.3 2.3 2.3 2.3 5.95 0 3.6-2.3 5.9-2.3 2.3-5.9 2.3ZM1.4 41.05V35.6q0-1.95 1.025-3.525T5.2 29.7Q9 28 12.025 27.325q3.025-.675 6.125-.675t6.1.675Q27.25 28 31 29.7q1.8.8 2.825 2.35 1.025 1.55 1.025 3.55v5.45Zm4-3.95h25.5v-1.4q0-.75-.425-1.475-.425-.725-1.225-1.025-3.4-1.65-5.8-2.125-2.4-.475-5.3-.475t-5.325.5Q10.4 31.6 7 33.2q-.8.3-1.2 1.025-.4.725-.4 1.475Zm12.75-17.5q1.85 0 3.05-1.2 1.2-1.2 1.2-3 0-1.9-1.2-3.075-1.2-1.175-3.05-1.175-1.85 0-3.05 1.175-1.2 1.175-1.2 3.025 0 1.85 1.175 3.05 1.175 1.2 3.075 1.2Zm0-4.2Zm0 15.2Z"/></svg>

<svg xmlns="http://www.w3.org/2000/svg" height="48" width="48"><path d="M36.9 27.1V20.75H30.55V17.45H36.9V11.1H40.25V17.45H46.55V20.75H40.25V27.1ZM18.15 23.6Q14.5 23.6 12.2 21.3Q9.9 19 9.9 15.4Q9.9 11.75 12.2 9.45Q14.5 7.15 18.15 7.15Q21.75 7.15 24.05 9.45Q26.35 11.75 26.35 15.4Q26.35 19 24.05 21.3Q21.75 23.6 18.15 23.6ZM1.4 41.05V35.6Q1.4 33.65 2.425 32.075Q3.45 30.5 5.2 29.7Q9 28 12.025 27.325Q15.05 26.65 18.15 26.65Q21.25 26.65 24.25 27.325Q27.25 28 31 29.7Q32.8 30.5 33.825 32.05Q34.85 33.6 34.85 35.6V41.05ZM5.4 37.1H30.9V35.7Q30.9 34.95 30.475 34.225Q30.05 33.5 29.25 33.2Q25.85 31.55 23.45 31.075Q21.05 30.6 18.15 30.6Q15.25 30.6 12.825 31.1Q10.4 31.6 7 33.2Q6.2 33.5 5.8 34.225Q5.4 34.95 5.4 35.7ZM18.15 19.6Q20 19.6 21.2 18.4Q22.4 17.2 22.4 15.4Q22.4 13.5 21.2 12.325Q20 11.15 18.15 11.15Q16.3 11.15 15.1 12.325Q13.9 13.5 13.9 15.35Q13.9 17.2 15.075 18.4Q16.25 19.6 18.15 19.6ZM18.15 15.4Q18.15 15.4 18.15 15.4Q18.15 15.4 18.15 15.4Q18.15 15.4 18.15 15.4Q18.15 15.4 18.15 15.4Q18.15 15.4 18.15 15.4Q18.15 15.4 18.15 15.4Q18.15 15.4 18.15 15.4Q18.15 15.4 18.15 15.4ZM18.15 30.6Q18.15 30.6 18.15 30.6Q18.15 30.6 18.15 30.6Q18.15 30.6 18.15 30.6Q18.15 30.6 18.15 30.6Q18.15 30.6 18.15 30.6Q18.15 30.6 18.15 30.6Q18.15 30.6 18.15 30.6Q18.15 30.6 18.15 30.6Z"/></svg>
